cssgg/bulb.svg

<svg
  width="24"
  height="24"
  viewBox="0 0 24 24"
  fill="none"
  xmlns="http://www.w3.org/2000/svg"
>
  <path
    fill-rule="evenodd"
    clip-rule="evenodd"
    d="M4 9C4 11.9611 5.60879 14.5465 8 15.9297V15.9999C8 18.2091 9.79086 19.9999 12 19.9999C14.2091 19.9999 16 18.2091 16 15.9999V15.9297C18.3912 14.5465 20 11.9611 20 9C20 4.58172 16.4183 1 12 1C7.58172 1 4 4.58172 4 9ZM16 13.4722C17.2275 12.3736 18 10.777 18 9C18 5.68629 15.3137 3 12 3C8.68629 3 6 5.68629 6 9C6 10.777 6.7725 12.3736 8 13.4722L10 13.4713V16C10 17.1045 10.8954 17.9999 12 17.9999C13.1045 17.9999 14 17.1045 14 15.9999V13.4713L16 13.4722Z"
    fill="currentColor"
  />
  <path
    d="M10 21.0064V21C10.5883 21.3403 11.2714 21.5351 12 21.5351C12.7286 21.5351 13.4117 21.3403 14 21V21.0064C14 22.111 13.1046 23.0064 12 23.0064C10.8954 23.0064 10 22.111 10 21.0064Z"
    fill="currentColor"
  />
</svg>

<svg viewBox="0 0 24 24" xmlns="http://www.w3.org/2000/svg"><path fill-rule="evenodd" d="M4 9c0 2.96 1.6 5.54 4 6.92v.07c0 2.2 1.79 4 4 4 2.2 0 4-1.8 4-4v-.08c2.39-1.39 4-3.97 4-6.93 0-4.42-3.59-8-8-8 -4.42 0-8 3.58-8 8Zm12 4.47c1.22-1.1 2-2.7 2-4.48 0-3.32-2.69-6-6-6 -3.32 0-6 2.68-6 6 0 1.77.77 3.37 2 4.47l2-.01v2.52c0 1.1.89 1.99 2 1.99 1.1 0 2-.9 2-2v-2.53l2 0Z"/><path d="M10 21v-.01c.58.34 1.27.53 2 .53 .72 0 1.41-.2 2-.54v0c0 1.1-.9 2-2 2 -1.11 0-2-.9-2-2Z"/></svg>
